X: 305804
M: 2/4
L: 1/16
K: C
c2e2 A2A2 | F4 D2C2 | B,2D2G2F2 | EDEF G2G2 |\
c2e2 A2A2 | F4 D2C2 | B,2A2G2B2 | c2e2c2 H|]
dG^FG dGeG | fedc BAGF | EGce gede | d2d2d2 Bc |\
dG^FG dGeG | fedc BAGF | EGce dfAB | c2e2"^D.C."c2 |]


